!!!COM: Music21
!!!OTL: Mazurca para Boiro
!!!OMV: pezas_mazurcas_mazurca-para-boiro_mazurca-para-boiro-partitura.musicxml
**kern
*I"Bagpipes
*I'Bag
*clefG^2
*k[]
*M3/4
=1
!LO:TX:a:t=Allegretto
4.ccc
8gg
8eeL
8ggJ
=
4.cc
8gg
8eeL
8ggJ
=
4.cc
8ee
8ggL
8eeJ
=
4ff'
4dd
4b
=
4.bb
8ff
8ddL
8ffJ
=
4.b
8ff
8ddL
8ffJ
=
4.b
8dd
8ffL
8ddJ
=
4ee'
4cc
4cc
=
4.ccc
8gg
8eeL
8ggJ
!!linebreak:original
=
4.cc
8gg
8eeL
8ggJ
=
4.cc
8ee
8ffL
8ggJ
=
2aa
4aa
=
4ccc
8bbL
8aaJ
8ggL
8aaJ
=
4bb'
8aaL
8ggJ
8ffL
8eeJ
=
8ddL
8eeJ
8ffL
8ggJ
8aaL
8ffJ
=
4gg'
4ee
4ee
=
4.ccc
8aa
8cccL
8aaJ
=
4bb'
8aaL
8ggJ
8ffL
8eeJ
!!linebreak:original
=
8ddL
8eeJ
8ffL
8aaJ
8ggML
8ffJ
=
4ee
2ee
=||
*M3/4
!LO:TX:a:t=Allegretto
4.ccc
8gg
8eeL
8ggJ
=
4.cc
8gg
8eeL
8ggJ
=
4.cc
8ee
8ggL
8eeJ
=
4ff'
4dd
4b
=
4.bb
8ff
8ddL
8ffJ
=
4.b
8ff
8ddL
8ffJ
!!linebreak:original
=
4.b
8dd
8ffL
8ddJ
=
4ee'
4cc
4cc
=
4.ccc
8gg
8eeL
8ggJ
=
4.cc
8gg
8eeL
8ggJ
=
4.cc
8ee
8ffL
8ggJ
=
2aa
4aa
=
4ccc
8bbL
8aaJ
8ggL
8aaJ
=
4bb'
8aaL
8ggJ
8ffL
8eeJ
=
8ddL
8eeJ
8ffL
8ggJ
8aaL
8ffJ
!!linebreak:original
=
4gg'
4ee
4ee
=
4.ccc
8aa
8cccL
8aaJ
=
4bb'
8aaL
8ggJ
8ffL
8eeJ
=
8ddL
8eeJ
8ffL
8aaJ
8ggML
8ffJ
=
4ee
2ee
=||
8ee'L
8ddJ
8eeL
8ffJ
8ggL
8eeJ
=
8ffL
8ggJ
8ffL
8eeJ
4dd
=
8ff'L
8eeJ
8ffL
8ggJ
8aaL
8ffJ
=
8bb'L
8aaJ
8ggL
8ffJ
4ee
!!linebreak:original
=
8ee'L
8ddJ
8eeL
8ffJ
8ggL
8eeJ
=
8aaL
8ggJ
8ffL
8ggJ
8aaL
8ffJ
=
8gg'L
8ffJ
8eeL
8gg'J
8ffL
8ddJ
=
4ff
4ee
4ee
=||
8ee'L
8ddJ
8eeL
8ffJ
8ggL
8eeJ
=
8ffL
8ggJ
8ffL
8eeJ
4dd
=
8ff'L
8eeJ
8ffL
8ggJ
8aaL
8ffJ
=
8bb'L
8aaJ
8ggL
8ffJ
4ee
!!linebreak:original
=
8ee'L
8ddJ
8eeL
8ffJ
8ggL
8eeJ
=
8aaL
8ggJ
8ffL
8ggJ
8aaL
8ffJ
=
8gg'L
8ffJ
8eeL
8gg'J
8ffL
8ddJ
=
4ff
4ee
4ee
=||
8ee'L
8ddJ
8eeL
8ffJ
8ggL
8eeJ
=
8ffL
8ggJ
8ffL
8eeJ
4dd
=
8ff'L
8eeJ
8ffL
8ggJ
8aaL
8ffJ
=
8bb'L
8aaJ
8ggL
8ffJ
4ee
!!linebreak:original
=
8ee'L
8ddJ
8eeL
8ffJ
8ggL
8eeJ
=
8aaL
8ggJ
8ffL
8ggJ
8aaL
8ffJ
=
8gg'L
8ffJ
8eeL
8gg'J
8ffL
8ddJ
=
4ee
2ee
==
*-
